X:17
T:No1. AJH.017
M:2/4
L:1/8
Q:1/4=80
S:A.J.Hughes MS
O:England
O:England
A:a
N:Tune follows on from Lass O’ Gowry AJH016 and may have
N:made up a set. Also found in the Richard Hughes MS#RH.155.
Z:Neil Brookes 2006
K:G
G/B/d/B/ Gg|dddg|fedc|BAGF|!
G/B/d/B/ Gg|ddd g/a/|a/f/g/e/ f/d/e/^c/|ddd2:|!
|:a/f/a/f/ dd|b/g/b/g/ da/b/|c’bag|g/f/e/f/ dB|!
G/B/d/B/ Gg|ddd b/c’/|d’/b/c’/a/ b/g/a/f/|ggg2:|

